public/+C$750.svg

<svg width="177" height="46" viewBox="0 0 177 46" fill="none" xmlns="http://www.w3.org/2000/svg">
<path d="M9.013 41V32.004H0.745V23.944H9.013V14.948H17.437V23.944H25.705V32.004H17.437V41H9.013ZM48.7727 41.832C45.0287 41.832 41.7527 41.0867 38.9447 39.596C36.1714 38.0707 34.0047 35.9387 32.4447 33.2C30.9194 30.4613 30.1567 27.272 30.1567 23.632C30.1567 19.888 30.954 16.5773 32.5487 13.7C34.178 10.8227 36.3967 8.56933 39.2047 6.94C42.0474 5.276 45.306 4.444 48.9807 4.444C53.0714 4.444 56.278 5.24133 58.6007 6.836L57.1967 15.104C56.1914 14.6187 55.134 14.272 54.0247 14.064C52.95 13.8213 51.9274 13.7 50.9567 13.7C48.114 13.7 45.878 14.5493 44.2487 16.248C42.6194 17.9467 41.8047 20.304 41.8047 23.32C41.8047 26.1627 42.5847 28.3987 44.1447 30.028C45.7394 31.6227 47.9407 32.42 50.7487 32.42C51.858 32.42 52.8634 32.316 53.7647 32.108C54.7007 31.9 55.8447 31.5187 57.1967 30.964L58.6527 39.18C55.6367 40.948 52.3434 41.832 48.7727 41.832ZM71.5913 45.42V41.572C69.5807 41.5027 67.6047 41.2253 65.6633 40.74C63.722 40.2547 62.0753 39.648 60.7233 38.92L63.0633 32.316C64.3807 32.8707 65.75 33.3387 67.1713 33.72C68.6273 34.1013 70.1007 34.3267 71.5913 34.396V26.908C70.3087 26.5267 69.0087 26.0933 67.6913 25.608C66.374 25.1227 65.1607 24.4987 64.0513 23.736C62.9767 22.9387 62.0927 21.9507 61.3993 20.772C60.7407 19.5933 60.4113 18.1373 60.4113 16.404C60.4113 13.5613 61.3993 11.2213 63.3753 9.384C65.386 7.54667 68.1247 6.368 71.5913 5.848V0.803997H76.0113V5.588C77.8487 5.62267 79.634 5.88267 81.3673 6.368C83.1007 6.81866 84.5047 7.408 85.5793 8.136L83.3433 14.376C82.0953 13.7867 80.8647 13.3187 79.6513 12.972C78.4727 12.6253 77.2593 12.4347 76.0113 12.4V19.888C77.2593 20.2693 78.5247 20.72 79.8073 21.24C81.09 21.76 82.2687 22.4187 83.3433 23.216C84.418 23.9787 85.2847 24.9493 85.9433 26.128C86.602 27.272 86.9313 28.676 86.9313 30.34C86.9313 33.4253 85.9607 35.904 84.0193 37.776C82.1127 39.648 79.4433 40.8267 76.0113 41.312V45.42H71.5913ZM68.8353 15.572C68.8353 16.2307 69.078 16.7853 69.5633 17.236C70.0833 17.652 70.7593 18.0333 71.5913 18.38V12.816C69.754 13.3013 68.8353 14.22 68.8353 15.572ZM76.0113 34.032C77.7447 33.4773 78.6113 32.4893 78.6113 31.068C78.6113 30.444 78.3687 29.924 77.8833 29.508C77.4327 29.092 76.8087 28.7107 76.0113 28.364V34.032ZM99.7254 41.884L90.2614 37.88L101.857 12.816H88.9614V5.224H113.297V11.568L99.7254 41.884ZM126.334 41.676C124.739 41.676 123.127 41.5027 121.498 41.156C119.868 40.844 118.187 40.3067 116.454 39.544L118.118 31.588C119.262 32.1427 120.51 32.576 121.862 32.888C123.214 33.1653 124.479 33.304 125.658 33.304C127.53 33.304 128.899 32.9573 129.766 32.264C130.632 31.536 131.066 30.548 131.066 29.3C131.066 28.1907 130.719 27.324 130.026 26.7C129.332 26.076 128.431 25.764 127.322 25.764C125.484 25.764 123.855 26.4747 122.434 27.896L116.818 25.504L118.534 5.224H138.97L138.19 13.024H126.334L125.71 19.472C126.542 18.8133 127.443 18.3453 128.414 18.068C129.419 17.7907 130.372 17.652 131.274 17.652C133.631 17.652 135.538 18.1547 136.994 19.16C138.484 20.1653 139.576 21.4827 140.27 23.112C140.963 24.7413 141.31 26.492 141.31 28.364C141.31 31.38 140.686 33.876 139.438 35.852C138.19 37.828 136.439 39.3013 134.186 40.272C131.967 41.208 129.35 41.676 126.334 41.676ZM160.387 41.416C157.232 41.416 154.424 40.636 151.963 39.076C149.502 37.4813 147.56 35.2973 146.139 32.524C144.752 29.716 144.059 26.5093 144.059 22.904C144.059 19.3333 144.752 16.1613 146.139 13.388C147.56 10.6147 149.502 8.43067 151.963 6.836C154.424 5.24133 157.232 4.444 160.387 4.444C162.744 4.444 164.911 4.912 166.887 5.848C168.863 6.74933 170.579 8.032 172.035 9.696C173.491 11.3253 174.618 13.2667 175.415 15.52C176.247 17.7733 176.663 20.2347 176.663 22.904C176.663 26.4747 175.952 29.664 174.531 32.472C173.144 35.2453 171.22 37.4293 168.759 39.024C166.332 40.6187 163.542 41.416 160.387 41.416ZM160.387 32.524C162.12 32.524 163.472 31.6747 164.443 29.976C165.448 28.2773 165.951 25.92 165.951 22.904C165.951 19.9573 165.448 17.6347 164.443 15.936C163.472 14.2027 162.12 13.336 160.387 13.336C158.619 13.336 157.232 14.1853 156.227 15.884C155.256 17.5827 154.771 19.9227 154.771 22.904C154.771 25.8507 155.274 28.1907 156.279 29.924C157.319 31.6573 158.688 32.524 160.387 32.524Z" fill="white"/>
</svg>

<svg xmlns="http://www.w3.org/2000/svg" width="177" height="46" fill="none"><path fill="#fff" d="M9.013 41v-8.996H.745v-8.06h8.268v-8.996h8.424v8.996h8.268v8.06h-8.268V41zm39.76.832q-5.616 0-9.828-2.236-4.16-2.288-6.5-6.396-2.289-4.108-2.288-9.568 0-5.616 2.392-9.932 2.444-4.315 6.656-6.76 4.263-2.496 9.776-2.496 6.135 0 9.62 2.392l-1.404 8.268a12.6 12.6 0 0 0-3.172-1.04 14 14 0 0 0-3.068-.364q-4.265 0-6.708 2.548-2.445 2.548-2.444 7.072 0 4.265 2.34 6.708 2.392 2.392 6.604 2.392 1.663 0 3.016-.312 1.404-.312 3.432-1.144l1.456 8.216q-4.525 2.652-9.88 2.652M71.59 45.42v-3.848a28.4 28.4 0 0 1-5.928-.832q-2.912-.728-4.94-1.82l2.34-6.604a32 32 0 0 0 4.108 1.404q2.185.572 4.42.676v-7.488a64 64 0 0 1-3.9-1.3 16.4 16.4 0 0 1-3.64-1.872 9.9 9.9 0 0 1-2.652-2.964q-.987-1.768-.988-4.368 0-4.265 2.964-7.02 3.017-2.756 8.216-3.536V.804h4.42v4.784a21.3 21.3 0 0 1 5.356.78q2.601.675 4.212 1.768l-2.236 6.24a24 24 0 0 0-3.692-1.404 14.3 14.3 0 0 0-3.64-.572v7.488q1.873.572 3.796 1.352a16 16 0 0 1 3.536 1.976 8.76 8.76 0 0 1 2.6 2.912q.988 1.716.988 4.212 0 4.628-2.912 7.436-2.86 2.807-8.008 3.536v4.108zm-2.756-29.848q0 .988.728 1.664.78.624 2.028 1.144v-5.564q-2.756.728-2.756 2.756m7.176 18.46q2.6-.833 2.6-2.964 0-.936-.728-1.56-.675-.624-1.872-1.144zm23.714 7.852-9.464-4.004 11.596-25.064H88.961V5.224h24.336v6.344zm26.609-.208q-2.392 0-4.836-.52-2.445-.468-5.044-1.612l1.664-7.956q1.716.832 3.744 1.3 2.028.416 3.796.416 2.808 0 4.108-1.04 1.3-1.092 1.3-2.964 0-1.664-1.04-2.6t-2.704-.936q-2.757 0-4.888 2.132l-5.616-2.392 1.716-20.28h20.436l-.78 7.8h-11.856l-.624 6.448a7.8 7.8 0 0 1 2.704-1.404q1.507-.416 2.86-.416 3.536 0 5.72 1.508 2.235 1.508 3.276 3.952t1.04 5.252q0 4.524-1.872 7.488t-5.252 4.42q-3.328 1.404-7.852 1.404m34.053-.26q-4.732 0-8.424-2.34-3.692-2.392-5.824-6.552-2.08-4.212-2.08-9.62 0-5.356 2.08-9.516 2.132-4.16 5.824-6.552t8.424-2.392q3.536 0 6.5 1.404a15.1 15.1 0 0 1 5.148 3.848q2.184 2.444 3.38 5.824 1.248 3.38 1.248 7.384 0 5.356-2.132 9.568-2.08 4.16-5.772 6.552-3.64 2.392-8.372 2.392m0-8.892q2.6 0 4.056-2.548 1.508-2.548 1.508-7.072 0-4.42-1.508-6.968-1.456-2.6-4.056-2.6-2.652 0-4.16 2.548-1.456 2.549-1.456 7.02 0 4.42 1.508 7.02 1.56 2.6 4.108 2.6"/></svg>
